!!!!SEGMENT: Ver3020-La_bella_donna.krn
!!!id: Ver3020
!!!AGN: Madrigal
!!!SCT: Slim (1972)
!!!voices: 4
!!!COM: Philippe Verdelot
!!!OTL: La bella donna
**kern	**kern	**kern	**kern
*part4	*part3	*part2	*part1
*staff4	*staff3	*staff2	*staff1
*I"Bassus	*I"Tenor	*I"Altus	*I"Superius
*I'B	*I'T	*I'A	*I'S
*clefF4	*clefGv2	*clefGv2	*clefG2
*k[]	*k[]	*k[]	*k[]
*C:	*C:	*C:	*C:
*M2/1	*M2/1	*M2/1	*M2/1
*met(C)	*met(C)	*met(C)	*met(C)
=1	=1	=1	=1
0r	0r	1e	1e
.	.	2e	2g
.	.	2e	2g
=2	=2	=2	=2
1r	1r	1f	1a
2r	1E	[1e	1g
2E	.	.	.
=3	=3	=3	=3
2E	2G	1e]	0r
2E	2G	.	.
1F	1A	1r	.
=4	=4	=4	=4
1E	1G	2r	2r
.	.	2e	2b
1r	1r	2.f	2.dd
.	.	4e	4cc
=5	=5	=5	=5
1r	1r	2d	2b
.	.	2c	2.a
1E	2r	1B	.
.	.	.	8gL
.	.	.	8fJ
.	2G	.	2g
=6	=6	=6	=6
2.F	2.d	1A	1a
4E	4c	.	.
2D	2B	1r	1r
2C	[2A	.	.
=7	=7	=7	=7
1BB	2A]	2r	1r
.	2G	2d	.
2AA	2A	2.f	2r
2AA	2e	.	2cc
.	.	4e	.
=8	=8	=8	=8
2.D	2.f	2d	2.dd
.	.	2d	.
4D	4e	.	4cc
2D	2d	1f	2b
2D	2c	.	[2a
=9	=9	=9	=9
1E	1B	1e	4a]
.	.	.	8g#iL
.	.	.	8f#iJ
.	.	.	2g#i
1AA	2A	2r	[1a
.	2A	2c	.
=10	=10	=10	=10
2r	2d	2f	0a]
2D	2d	2f	.
2A	2c	2e	.
2A	2A	2c	.
=11	=11	=11	=11
2G	1B	2d	2r
2E	.	2.e	2g
1F	1A	.	2a
.	.	4d	.
.	.	4d	2a
.	.	8cL	.
.	.	8dJ	.
=12	=12	=12	=12
1E	2r	1e	2g
.	2B	.	2e
2r	2.d	1r	1f
2D	.	.	.
.	4c	.	.
=13	=13	=13	=13
2E	2B	0r	0e
2E	2G	.	.
2E	[1c	.	.
2E	.	.	.
=14	=14	=14	=14
1.F	2c]	1A	1r
.	2B	.	.
.	2A	2A	1a
2E	2G	2A	.
=15	=15	=15	=15
2D	4F	1d	2a
.	4E	.	.
2C	1A	.	2a
1BB	.	1d	2b
.	2G#i	.	2b
=16	=16	=16	=16
1AA	1A	4c	1.cc
.	.	4B	.
.	.	4c	.
.	.	4d	.
1r	1r	4e	.
.	.	4f	.
.	.	2g	2b
=17	=17	=17	=17
0r	0r	2f	2a
.	.	1e	2g
.	.	.	1f
.	.	2d	.
=18	=18	=18	=18
0AA	0A	1e	1e
.	.	2r	2r
.	.	2c	2e
=19	=19	=19	=19
2D	2A	2d	2f
2D	2A	2f	2d
2C	2A	2e	2e
2D	2A	4d	2f
.	.	4c	.
=20	=20	=20	=20
2E	2G	2B	2g
2AA	2E	2c	2a
2D	2F	2B	2b
2C	2E	[2A	2cc
=21	=21	=21	=21
1BB	1D	2A]	1dd
.	.	2G#i	.
1AA	1E	2A	1cc#X
.	.	2c	.
=22	=22	=22	=22
1AA	2r	2c	2r
.	2E	2c	2a
2D	2F	2d	2a
2AA	2E	[2c	2a
=23	=23	=23	=23
2C	2E	4c]	2g
.	.	4B	.
2D	2F	1A	1f
1BB	1D	.	.
.	.	2G#i	4e
.	.	.	4d
=24	=24	=24	=24
1AA	1E	1A	1c
2r	1F	2r	2r
2D	.	2A	2d
=25	=25	=25	=25
2AA	2E	2A	2c
2D	2F	2A	2d
2C	2G	2c	2e
2AA	2A	2c	2f
=26	=26	=26	=26
0GG	0BnX	0d	0g
=27	=27	=27	=27
2D	2A	2d	2f
2E	2G	2.c	1e
1F	1A	.	.
.	.	4B	.
.	.	2A	2d
=28	=28	=28	=28
2E	2B	2G	2e
2E	2B	2G	2e
2r	2r	2r	2r
2E	2B	2e	2g
=29	=29	=29	=29
2E	2B	2e	2g
2E	2B	2e	2g
2E	2B	2e	2g
2E	2B	2e	2g
=30	=30	=30	=30
1.F	1A	1c	1.a
.	2F	2A	.
2E	2G	[2B	2g
=31	=31	=31	=31
2D	1A	4B]	2f
.	.	4A	.
2C	.	1A	2e
1BB	1D	.	1d
.	.	2G#i	.
=32	=32	=32	=32
1AA	1E	2A	1c
.	.	2A	.
2r	2r	2r	2r
2C	2e	2E	2g
=33	=33	=33	=33
2D	2d	2A	2f
2D	2d	2A	2f
2E	2B	2G	2e
2C	2e	2c	2g
=34	=34	=34	=34
2D	2d	2A	2f
2E	2c	2G	2e
2F	2c	2A	2e
2G	2B	2B	2d
=35	=35	=35	=35
2C	2c	2G	2e
2C	2c	2G	2e
2r	2r	2r	2r
2C	2e	2g	2cc
=36	=36	=36	=36
2G	2d	2g	2b
2G	2d	2g	2b
2A	2c	2e	2a
2F	2A	2f	2cc
=37	=37	=37	=37
2G	2B	2d	2b
2A	2c	2c	2a
2D	2d	2f	2a
2E	2B	2e	2g#i
=38	=38	=38	=38
1F	2A	2c	0a
.	2A	2c	.
2D	2r	2r	.
2D	2f	2d	.
=39	=39	=39	=39
2A	2e	2d	[0al
2A	2e	2c	.
2D	2d	2d	.
2D	2f	2d	.
=40	=40	=40	=40
2C	2e	2e	0a_
2D	2d	2f	.
2A	2d	2f	.
2A	2c#i	2e	.
=41	=41	=41	=41
0D	0d	0f	0a_
=42	=42	=42	=42
00Al	00c#il	00el	00a]
==	==	==	==
*-	*-	*-	*-
!!!system-decoration: [*]
!!!RDF**kern: i = editorial accidental
!!!RDF**kern: l = terminal long
!!!ENC: Benjamin Ory
!!!END: 2021/2/4
!!!EED: Benjamin Ory
!!!EEV: 2021/04/29
!!!YEC: Copyright 2021 Benjamin Ory, All Rights Reserved
!!!ONB: Translated from MusicXML on 2021/04/29
